X:135
T:Sr. Alexr Mc.Donald's Reel THO3.135
O:England;London
M:C|
L:1/8
Z:vmp. Peter Dunk 2011.from a transcription by Fynn Titford-Mock 2006-9
B:Thompson's Compleat Collection of 200 Favourite Country Dances Vol. III.1765-72
Q:1/2=80
K:D
FA-A(f/g/) afed|gfed BdBA|FA-A(f/g/) afed|(e/f/g) (e/f/g) e2d2:|
|:FA-AB ABAF|G/G/G G2 GABG|FA-AB ABAF|ABAF E2D2:|
|:(f/g/a) ab a>baf|g/g/g g2 gaba|f/g/a ab a>baf|fafg e2d2:|

